X: 1
T: Maggie's Lilt
M: 4/4
L: 1/8
R: barndance
K: Dmaj
AFAd f2f2|AFAd f2ef|gfed c2d2|(3efe (3dcB A2A2|
AFAd f2f2|AFAd f2ef|gfed c2d2|1 (3efe dc d3 B:|2 (3efe dc d2 d2||
fgaf d2d2|fgaf d2ef|gfed c2d2|(3efe (3dcB A2A2|
fgaf d2d2|fgaf d2ef|gfed c2d2|1 (3efe dc d2 d2:|2 (3efe dc d3 B||
